actions/22x22-dark/view-calendar-time-spent.svg

<svg xmlns="http://www.w3.org/2000/svg" viewBox="0 0 22 22">
 <defs id="defs3051">
   <style type="text/css" id="current-color-scheme">
     .ColorScheme-Text {
       color:#f2f2f2;
     }
     </style>
 </defs>
   <path
      style="fill:currentColor;fill-opacity:1;stroke:none"
      d="m4 3c-.55402 0-1 .44598-1 1v14c0 .55402.44598 1 1 1h14c .55402 0 1-.44598 1-1v-14c0-.55402-.44598-1-1-1zm1.93164 3h2.03516c.21895.00009.39467.12963.39453.28906l-.008 9.42383c-.00015.15943-.17754.2872-.39649.28711h-2.03516c-.21894-.00009-.39467-.12963-.39453-.28906l.008-9.42383c.00015-.15943.17754-.2872.39649-.28711zm4.13086 2.57617h2.03516c.21894.00007.39472.12768.39453.28711l-.008 6.82813c-.0002.15943-.17754.28912-.39649.28906l-2.03515-.002c-.21895-.00007-.39473-.12768-.39453-.28711l.008-6.82813c.00018-.15938.17752-.28712.39647-.28706zm3.98047 2.61328 2.03515.002c.21895.00005.39484.12768.39454.28711l-.008 4.23243c-.0003.15942-.17754.28715-.39649.2871h-2.03516c-.21894-.00004-.39483-.12963-.39453-.28906l.008-4.23047c.0003-.15943.17754-.2891.39649-.28906z"
      class="ColorScheme-Text" />
</svg>

<svg xmlns="http://www.w3.org/2000/svg" viewBox="0 0 22 22">
  <defs id="defs3051">
    <style type="text/css" id="current-color-scheme">
      .ColorScheme-Text {
        color:#f2f2f2
      }
      </style>
  </defs>
 <path 
     style="fill:currentColor;fill-opacity:1;stroke:none"      
	 class="ColorScheme-Text"
        d="M 4,3 C 3.44598,3 3,3.44598 3,4 l 0,14 c 0,0.55402 0.44598,1 1,1 l 14,0 c 0.55402,0 1,-0.44598 1,-1 L 19,4 C 19,3.44598 18.55402,3 18,3 L 4,3 Z M 5.93164,6 7.9668,6 c 0.21895,9e-5 0.39467,0.12963 0.39453,0.28906 l -0.008,9.42383 C 8.35318,15.87232 8.17579,16.00009 7.95684,16 l -2.03516,0 c -0.21894,-9e-5 -0.39467,-0.12963 -0.39453,-0.28906 l 0.008,-9.42383 C 5.5353,6.12768 5.71269,5.99991 5.93164,6 Z m 4.13086,2.57617 2.03516,0 c 0.21894,7e-5 0.39472,0.12768 0.39453,0.28711 l -0.008,6.82813 c -2e-4,0.15943 -0.17754,0.28912 -0.39649,0.28906 l -2.03515,-0.002 C 9.8336,15.9784 9.65782,15.85079 9.65802,15.69136 l 0.008,-6.82813 C 9.6662,8.70385 9.84354,8.57611 10.06249,8.57617 Z m 3.98047,2.61328 2.03515,0.002 c 0.21895,5e-5 0.39484,0.12768 0.39454,0.28711 l -0.008,4.23243 c -3e-4,0.15942 -0.17754,0.28715 -0.39649,0.2871 l -2.03516,0 c -0.21894,-4e-5 -0.39483,-0.12963 -0.39453,-0.28906 l 0.008,-4.23047 c 3e-4,-0.15943 0.17754,-0.2891 0.39649,-0.28906 z"
     />
</svg>
